X:1
T:George Johnston
M:6/8
L:1/8
Q:80
C:J. A. Barrie
S:March
K:HP
|: d | \
{gef}e2A{g}A2{GdGe}A | \
{g}B/2{d}A3/2{d}B{gef}e2d | \
{gef}e2{A}e{g}e3/2d/2{e}B |
{Gdc}d2{e}G{gGd}G2d | \
{gef}e2A{g}A2{GdGe}A | \
{g}B/2{d}A3/2{d}B{gef}e2d |
{g}e3/2a/2{g}ag3/2e/2{g}d | \
{gef}e2{g}A{GAG}A2 :: \
d |
{g}e2a{g}a3/2g/2{a}e | \
{g}e3/2a/2g{a}e2d | \
{gef}e2{A}e{g}e3/2d/2{e}B |
{Gdc}d2{e}G{gGd}G2d | \
{g}e2a{g}a3/2g{a}e | \
{g}e3/2a/2g{a}e2d |
{g}e3/2a/2{g}ag3/2e/2{g}d | \
{gef}e2{g}A{GAG}A2 :: \
e |
{gAGAG}A2e{g}A3/2e/2{g}d | \
{g}A3/2e/2{g}d{g}B2{d}c | \
{Gdc}d2{e}G{g}G3/2{d}B/2{e}A |
{gBd}B2{e}G{gGd}G2{d}B | \
{gAGAG}A2e{g}A3/2e/2{g}d | \
{g}A3/2e/2{g}d{g}B2d |
{g}e3/2a/2{g}ag3/2e/2{g}d | \
{gef}e2{g}A{GAG}A2 :: \
e |
a2{GdG}a{g}a2e | \
{gf}g3/2a/2g{a}g2e | \
a2{GdG}a{f}g3/2f/2{g}e |
{Gdc}d2{e}G{gGd}G2e|1
a2{GdG}a{g}a2e | \
{gf}g3/2a/2g{a}g2f |
{g}e3/2a/2{g}ag3/2e/2{g}d | \
{gef}e2{g}A{GAG}A2 :|
